X: 01023
T: CHIPS FROM THE BLOCK
C: Bob McQuillen Aug'74
B: Bob's Note Book 1 #23
%R: reel
Z: 2019 John Chambers <jc:trillian.mit.edu>
M: C
L: 1/8
K: D
FG \
| Adfd edBd | ABAF D2DE | FABc dcBA | FB2A BABc |
| defd edBd | ABAF DEFA | BdBd ABcA | d2D2 D2 :|
|: dc \
| d2dA BABc | d2D2 D2FA | B2BA FEFA | B2B,2 B,2DE |
| FABA GABc | defd BcdB | AdcB AFEG | F2D2 D2 :|
%%begintext align
%% For Allan Block, fine
%% fellow, find friend, fine fiddler.
%%endtext

%%sep 1 1 500

%%sep 1 1 500

